%
O09001 (Crankshaft-Side1)
(Using high feed G1 F500. instead of G0.)
(T2 D=0.375 CR=0. - ZMIN=-0.4375 - flat end mill)
N10 G90 G94 G17
N15 G20
N20 G53 G0 Z0.

(2D Pocket4)
N30 T2 M6
N35 S1000 M3
N40 G54
N45 M8
N60 G0 X-0.0082 Y-0.4195
N65 G43 Z0.6 H2
N70 G0 Z0.2394
N75 G1 Z-0.1625 F5.
N80 G19 G3 Y-0.382 Z-0.2 J0.0375 K0.
N85 G1 Y-0.1816
N90 Y0.5569
N95 G17 G3 X-0.1206 Y0.557 I-0.0562 J0.
N100 G1 X-0.1213 Y0.1962
N105 G3 X-0.1206 Y0.1876 I0.0562 J-0.0001
N110 G1 X-0.0644 Y-0.1816
N115 G3 X-0.0121 Y-0.2293 I0.0556 J0.0085
N120 G1 X0.1572 Y-0.2393
N125 G3 X0.2167 Y-0.1832 I0.0033 J0.0561
N130 G1 Y0.5584
N135 G3 X0.0627 Y0.5587 I-0.077 J0.
N140 G1 X0.0611 Y0.2036
N145 G3 X0.0627 Y0.1876 I0.077 J-0.0003
N150 G1 X0.1397 Y-0.1832
N155 G3 X0.2099 Y-0.2444 I0.0754 J0.0157
N160 G1 X0.4427 Y-0.2603
N165 G3 X0.525 Y-0.1834 I0.0052 J0.0768
N170 G1 Y0.375
N175 Y0.558
N180 G3 X0.4875 I-0.0187 J0.
N185 G1 Y0.1873
N190 X0.5063 Y-0.1834
N195 G3 X0.5245 Y-0.2012 I0.0187 J0.0009
N200 G1 X0.5432 Y-0.2017
N205 G3 X0.5625 Y-0.183 I0.0005 J0.0187
N210 G1 Y0.375
N215 Y0.558
N220 G3 X0.5277 Y0.5676 I-0.0188 J0.
N225 G1 X0.0267 Y-0.2677
N230 G2 X-0.0082 Y-0.2581 I-0.0161 J0.0096
N235 G19 G2 Y-0.2206 Z-0.2375 J0. K-0.0375
N240 G1 Z-0.2813
N245 G3 Y-0.1831 Z-0.3187 J0.0375 K0.
N250 G1 Y-0.1816
N255 Y0.5569
N260 G17 G3 X-0.1206 Y0.557 I-0.0562 J0.
N265 G1 X-0.1213 Y0.1962
N270 G3 X-0.1206 Y0.1876 I0.0562 J-0.0001
N275 G1 X-0.0644 Y-0.1816
N280 G3 X-0.0121 Y-0.2293 I0.0556 J0.0085
N285 G1 X0.1572 Y-0.2393
N290 G3 X0.2167 Y-0.1832 I0.0033 J0.0561
N295 G1 Y0.5584
N300 G3 X0.0627 Y0.5587 I-0.077 J0.
N305 G1 X0.0611 Y0.2036
N310 G3 X0.0627 Y0.1876 I0.077 J-0.0003
N315 G1 X0.1397 Y-0.1832
N320 G3 X0.2099 Y-0.2444 I0.0754 J0.0157
N325 G1 X0.4427 Y-0.2603
N330 G3 X0.525 Y-0.1834 I0.0052 J0.0768
N335 G1 Y0.375
N340 Y0.558
N345 G3 X0.4875 I-0.0187 J0.
N350 G1 Y0.1873
N355 X0.5063 Y-0.1834
N360 G3 X0.5245 Y-0.2012 I0.0187 J0.0009
N365 G1 X0.5432 Y-0.2017
N370 G3 X0.5625 Y-0.183 I0.0005 J0.0187
N375 G1 Y0.375
N380 Y0.558
N385 G3 X0.5277 Y0.5676 I-0.0188 J0.
N390 G1 X0.0267 Y-0.2677
N395 G2 X-0.0082 Y-0.2581 I-0.0161 J0.0096
N400 G19 G2 Y-0.2206 Z-0.3562 J0. K-0.0375
N405 G1 Z-0.4
N410 G3 Y-0.1831 Z-0.4375 J0.0375 K0.
N415 G1 Y-0.1816
N420 Y0.5569
N425 G17 G3 X-0.1206 Y0.557 I-0.0562 J0.
N430 G1 X-0.1213 Y0.1962
N435 G3 X-0.1206 Y0.1876 I0.0562 J-0.0001
N440 G1 X-0.0644 Y-0.1816
N445 G3 X-0.0121 Y-0.2293 I0.0556 J0.0085
N450 G1 X0.1572 Y-0.2393
N455 G3 X0.2167 Y-0.1832 I0.0033 J0.0561
N460 G1 Y0.5584
N465 G3 X0.0627 Y0.5587 I-0.077 J0.
N470 G1 X0.0611 Y0.2036
N475 G3 X0.0627 Y0.1876 I0.077 J-0.0003
N480 G1 X0.1397 Y-0.1832
N485 G3 X0.2099 Y-0.2444 I0.0754 J0.0157
N490 G1 X0.4427 Y-0.2603
N495 G3 X0.525 Y-0.1834 I0.0052 J0.0768
N500 G1 Y0.375
N505 Y0.558
N510 G3 X0.4875 I-0.0187 J0.
N515 G1 Y0.1873
N520 X0.5063 Y-0.1834
N525 G3 X0.5245 Y-0.2012 I0.0187 J0.0009
N530 G1 X0.5432 Y-0.2017
N535 G3 X0.5625 Y-0.183 I0.0005 J0.0187
N540 G1 Y0.375
N545 Y0.558
N550 G3 X0.562 Y0.5638 I-0.0375 J0.
N555 G1 X0.5327 Y0.749
N560 X0.532 Y0.7535 Z-0.4372
N565 X0.5313 Y0.7579 Z-0.4364
N570 X0.5306 Y0.7622 Z-0.4351
N575 X0.53 Y0.7663 Z-0.4332
N580 X0.5294 Y0.7701 Z-0.4309
N585 X0.5288 Y0.7736 Z-0.4281
N590 X0.5283 Y0.7768 Z-0.4249
N595 X0.5279 Y0.7795 Z-0.4213
N600 X0.5275 Y0.7818 Z-0.4174
N605 X0.5272 Y0.7837 Z-0.4133
N610 X0.527 Y0.785 Z-0.409
N615 X0.5269 Y0.7858 Z-0.4045
N620 X0.5268 Y0.7861 Z-0.4
N625 G0 Z0.6

N630 M5
N635 M9
N640 G53 G0 Z0.
N650 X1.4375
N655 G53 Y0.
N660 M30

%
