%
O09002 (Crankshaft-Side2)
(Using high feed G1 F500. instead of G0.)
(T2 D=0.375 CR=0. - ZMIN=-0.4375 - flat end mill)
N10 G90 G94 G17
N15 G20
N20 G53 G0 Z0.

(2D Pocket1)
N30 T2 M6
N35 S1000 M3
N40 G54
N45 M8
N60 G0 X-0.1135 Y-0.4041
N65 G43 Z0.6 H2
N70 G0 Z0.2394
N75 G1 Z-0.1625 F5.
N80 X-0.1134 Y-0.4039 Z-0.167
N85 X-0.113 Y-0.4032 Z-0.1715
N90 X-0.1123 Y-0.402 Z-0.1758
N95 X-0.1113 Y-0.4004 Z-0.1799
N100 X-0.1101 Y-0.3984 Z-0.1838
N105 X-0.1087 Y-0.396 Z-0.1874
N110 X-0.107 Y-0.3933 Z-0.1906
N115 X-0.1052 Y-0.3902 Z-0.1934
N120 X-0.1032 Y-0.3869 Z-0.1957
N125 X-0.1011 Y-0.3834 Z-0.1976
N130 X-0.0989 Y-0.3796 Z-0.1989
N135 X-0.0966 Y-0.3758 Z-0.1997
N140 X-0.0943 Y-0.372 Z-0.2
N145 X0.0189 Y-0.1831
N150 G3 X0.0208 Y-0.1765 I-0.011 J0.0066
N155 G1 Y0.5515
N160 G3 X0.0188 Y0.5583 I-0.0128 J0.
N165 X-0.0799 Y0.5311 I-0.0453 J-0.0283
N170 G1 X-0.0868 Y0.1978
N175 G3 X-0.0861 Y0.1876 I0.0534 J-0.0011
N180 G1 X-0.0269 Y-0.1556
N185 G3 X0.0135 Y-0.1985 I0.0526 J0.0091
N190 G1 X0.1688 Y-0.2351
N195 G3 X0.2344 Y-0.1831 I0.0122 J0.052
N200 G1 Y0.5585
N205 G3 X0.0804 Y0.5588 I-0.077 J0.
N210 G1 X0.0787 Y0.2037
N215 G3 X0.0804 Y0.1877 I0.077 J-0.0003
N220 G1 X0.1574 Y-0.1831
N225 G3 X0.2276 Y-0.2443 I0.0754 J0.0157
N230 G1 X0.4603 Y-0.2598
N235 G3 X0.5425 Y-0.183 I0.0051 J0.0768
N240 G1 Y0.558
N245 G3 X0.3884 Y0.5583 I-0.077 J0.
N250 G1 X0.3868 Y0.2035
N255 G3 X0.3884 Y0.1875 I0.077 J-0.0003
N260 G1 X0.4655 Y-0.183
N265 G3 X0.5355 Y-0.2441 I0.0754 J0.0157
N270 G1 X0.7682 Y-0.2603
N275 G3 X0.8506 Y-0.1835 I0.0053 J0.0768
N280 G1 Y0.5581
N285 G3 X0.6965 Y0.5584 I-0.077 J0.
N290 G1 X0.6949 Y0.2033
N295 G3 X0.6965 Y0.1873 I0.077 J-0.0003
N300 G1 X0.7735 Y-0.1835
N305 G3 X0.8438 Y-0.2447 I0.0754 J0.0157
N310 G1 X1.0765 Y-0.2602
N315 G3 X1.1586 Y-0.1834 I0.0051 J0.0768
N320 G1 Y0.5582
N325 G3 X1.0046 Y0.5585 I-0.077 J0.
N330 G1 X1.003 Y0.2034
N335 G3 X1.0046 Y0.1874 I0.077 J-0.0003
N340 G1 X1.0816 Y-0.1834
N345 G3 X1.1519 Y-0.2446 I0.0754 J0.0157
N350 G1 X1.3846 Y-0.2601
N355 G3 X1.4667 Y-0.1833 I0.0051 J0.0768
N360 G1 Y0.5583
N365 G3 X1.3127 Y0.5586 I-0.077 J0.
N370 G1 X1.3111 Y0.2035
N375 G3 X1.3127 Y0.1875 I0.077 J-0.0003
N380 G1 X1.3897 Y-0.1833
N385 G3 X1.4601 Y-0.2445 I0.0754 J0.0157
N390 G1 X1.6929 Y-0.2598
N395 G3 X1.775 Y-0.1829 I0.005 J0.0769
N400 G1 Y0.558
N405 G3 X1.7375 Y0.557 I-0.0187 J0.
N410 G1 X1.775 Y-0.184
N415 G3 X1.8125 Y-0.1831 I0.0187 J0.0009
N420 G1 Y0.375
N425 Y0.558
N430 G3 X1.812 Y0.5638 I-0.0375 J0.
N435 G1 X1.7827 Y0.749
N440 X1.782 Y0.7535 Z-0.1997
N445 X1.7813 Y0.7579 Z-0.1989
N450 X1.7806 Y0.7622 Z-0.1976
N455 X1.78 Y0.7663 Z-0.1957
N460 X1.7794 Y0.7701 Z-0.1934
N465 X1.7788 Y0.7736 Z-0.1906
N470 X1.7783 Y0.7768 Z-0.1874
N475 X1.7779 Y0.7795 Z-0.1838
N480 X1.7775 Y0.7818 Z-0.1799
N485 X1.7772 Y0.7837 Z-0.1758
N490 X1.777 Y0.785 Z-0.1715
N495 X1.7769 Y0.7858 Z-0.167
N500 X1.7768 Y0.7861 Z-0.1625
N505 G0 Z0.2394
N510 G1 X-0.1135 Y-0.4041 F500.
N515 Z-0.2813 F5.
N520 X-0.1134 Y-0.4039 Z-0.2858
N525 X-0.113 Y-0.4032 Z-0.2902
N530 X-0.1123 Y-0.402 Z-0.2945
N535 X-0.1113 Y-0.4004 Z-0.2987
N540 X-0.1101 Y-0.3984 Z-0.3026
N545 X-0.1087 Y-0.396 Z-0.3061
N550 X-0.107 Y-0.3933 Z-0.3093
N555 X-0.1052 Y-0.3902 Z-0.3121
N560 X-0.1032 Y-0.3869 Z-0.3145
N565 X-0.1011 Y-0.3834 Z-0.3163
N570 X-0.0989 Y-0.3796 Z-0.3177
N575 X-0.0966 Y-0.3758 Z-0.3185
N580 X-0.0943 Y-0.372 Z-0.3187
N585 X0.0189 Y-0.1831
N590 G3 X0.0208 Y-0.1765 I-0.011 J0.0066
N595 G1 Y0.5515
N600 G3 X0.0188 Y0.5583 I-0.0128 J0.
N605 X-0.0799 Y0.5311 I-0.0453 J-0.0283
N610 G1 X-0.0868 Y0.1978
N615 G3 X-0.0861 Y0.1876 I0.0534 J-0.0011
N620 G1 X-0.0269 Y-0.1556
N625 G3 X0.0135 Y-0.1985 I0.0526 J0.0091
N630 G1 X0.1688 Y-0.2351
N635 G3 X0.2344 Y-0.1831 I0.0122 J0.052
N640 G1 Y0.5585
N645 G3 X0.0804 Y0.5588 I-0.077 J0.
N650 G1 X0.0787 Y0.2037
N655 G3 X0.0804 Y0.1877 I0.077 J-0.0003
N660 G1 X0.1574 Y-0.1831
N665 G3 X0.2276 Y-0.2443 I0.0754 J0.0157
N670 G1 X0.4603 Y-0.2598
N675 G3 X0.5425 Y-0.183 I0.0051 J0.0768
N680 G1 Y0.558
N685 G3 X0.3884 Y0.5583 I-0.077 J0.
N690 G1 X0.3868 Y0.2035
N695 G3 X0.3884 Y0.1875 I0.077 J-0.0003
N700 G1 X0.4655 Y-0.183
N705 G3 X0.5355 Y-0.2441 I0.0754 J0.0157
N710 G1 X0.7682 Y-0.2603
N715 G3 X0.8506 Y-0.1835 I0.0053 J0.0768
N720 G1 Y0.5581
N725 G3 X0.6965 Y0.5584 I-0.077 J0.
N730 G1 X0.6949 Y0.2033
N735 G3 X0.6965 Y0.1873 I0.077 J-0.0003
N740 G1 X0.7735 Y-0.1835
N745 G3 X0.8438 Y-0.2447 I0.0754 J0.0157
N750 G1 X1.0765 Y-0.2602
N755 G3 X1.1586 Y-0.1834 I0.0051 J0.0768
N760 G1 Y0.5582
N765 G3 X1.0046 Y0.5585 I-0.077 J0.
N770 G1 X1.003 Y0.2034
N775 G3 X1.0046 Y0.1874 I0.077 J-0.0003
N780 G1 X1.0816 Y-0.1834
N785 G3 X1.1519 Y-0.2446 I0.0754 J0.0157
N790 G1 X1.3846 Y-0.2601
N795 G3 X1.4667 Y-0.1833 I0.0051 J0.0768
N800 G1 Y0.5583
N805 G3 X1.3127 Y0.5586 I-0.077 J0.
N810 G1 X1.3111 Y0.2035
N815 G3 X1.3127 Y0.1875 I0.077 J-0.0003
N820 G1 X1.3897 Y-0.1833
N825 G3 X1.4601 Y-0.2445 I0.0754 J0.0157
N830 G1 X1.6929 Y-0.2598
N835 G3 X1.775 Y-0.1829 I0.005 J0.0769
N840 G1 Y0.558
N845 G3 X1.7375 Y0.557 I-0.0187 J0.
N850 G1 X1.775 Y-0.184
N855 G3 X1.8125 Y-0.1831 I0.0187 J0.0009
N860 G1 Y0.375
N865 Y0.558
N870 G3 X1.812 Y0.5638 I-0.0375 J0.
N875 G1 X1.7827 Y0.749
N880 X1.782 Y0.7535 Z-0.3185
N885 X1.7813 Y0.7579 Z-0.3177
N890 X1.7806 Y0.7622 Z-0.3163
N895 X1.78 Y0.7663 Z-0.3145
N900 X1.7794 Y0.7701 Z-0.3121
N905 X1.7788 Y0.7736 Z-0.3093
N910 X1.7783 Y0.7768 Z-0.3061
N915 X1.7779 Y0.7795 Z-0.3026
N920 X1.7775 Y0.7818 Z-0.2987
N925 X1.7772 Y0.7837 Z-0.2945
N930 X1.777 Y0.785 Z-0.2902
N935 X1.7769 Y0.7858 Z-0.2858
N940 X1.7768 Y0.7861 Z-0.2813
N945 G0 Z0.2394
N950 G1 X-0.1135 Y-0.4041 F500.
N955 Z-0.4 F5.
N960 X-0.1134 Y-0.4039 Z-0.4045
N965 X-0.113 Y-0.4032 Z-0.409
N970 X-0.1123 Y-0.402 Z-0.4133
N975 X-0.1113 Y-0.4004 Z-0.4174
N980 X-0.1101 Y-0.3984 Z-0.4213
N985 X-0.1087 Y-0.396 Z-0.4249
N990 X-0.107 Y-0.3933 Z-0.4281
N995 X-0.1052 Y-0.3902 Z-0.4309
N1000 X-0.1032 Y-0.3869 Z-0.4332
N1005 X-0.1011 Y-0.3834 Z-0.4351
N1010 X-0.0989 Y-0.3796 Z-0.4364
N1015 X-0.0966 Y-0.3758 Z-0.4372
N1020 X-0.0943 Y-0.372 Z-0.4375
N1025 X0.0189 Y-0.1831
N1030 G3 X0.0208 Y-0.1765 I-0.011 J0.0066
N1035 G1 Y0.5515
N1040 G3 X0.0188 Y0.5583 I-0.0128 J0.
N1045 X-0.0799 Y0.5311 I-0.0453 J-0.0283
N1050 G1 X-0.0868 Y0.1978
N1055 G3 X-0.0861 Y0.1876 I0.0534 J-0.0011
N1060 G1 X-0.0269 Y-0.1556
N1065 G3 X0.0135 Y-0.1985 I0.0526 J0.0091
N1070 G1 X0.1688 Y-0.2351
N1075 G3 X0.2344 Y-0.1831 I0.0122 J0.052
N1080 G1 Y0.5585
N1085 G3 X0.0804 Y0.5588 I-0.077 J0.
N1090 G1 X0.0787 Y0.2037
N1095 G3 X0.0804 Y0.1877 I0.077 J-0.0003
N1100 G1 X0.1574 Y-0.1831
N1105 G3 X0.2276 Y-0.2443 I0.0754 J0.0157
N1110 G1 X0.4603 Y-0.2598
N1115 G3 X0.5425 Y-0.183 I0.0051 J0.0768
N1120 G1 Y0.558
N1125 G3 X0.3884 Y0.5583 I-0.077 J0.
N1130 G1 X0.3868 Y0.2035
N1135 G3 X0.3884 Y0.1875 I0.077 J-0.0003
N1140 G1 X0.4655 Y-0.183
N1145 G3 X0.5355 Y-0.2441 I0.0754 J0.0157
N1150 G1 X0.7682 Y-0.2603
N1155 G3 X0.8506 Y-0.1835 I0.0053 J0.0768
N1160 G1 Y0.5581
N1165 G3 X0.6965 Y0.5584 I-0.077 J0.
N1170 G1 X0.6949 Y0.2033
N1175 G3 X0.6965 Y0.1873 I0.077 J-0.0003
N1180 G1 X0.7735 Y-0.1835
N1185 G3 X0.8438 Y-0.2447 I0.0754 J0.0157
N1190 G1 X1.0765 Y-0.2602
N1195 G3 X1.1586 Y-0.1834 I0.0051 J0.0768
N1200 G1 Y0.5582
N1205 G3 X1.0046 Y0.5585 I-0.077 J0.
N1210 G1 X1.003 Y0.2034
N1215 G3 X1.0046 Y0.1874 I0.077 J-0.0003
N1220 G1 X1.0816 Y-0.1834
N1225 G3 X1.1519 Y-0.2446 I0.0754 J0.0157
N1230 G1 X1.3846 Y-0.2601
N1235 G3 X1.4667 Y-0.1833 I0.0051 J0.0768
N1240 G1 Y0.5583
N1245 G3 X1.3127 Y0.5586 I-0.077 J0.
N1250 G1 X1.3111 Y0.2035
N1255 G3 X1.3127 Y0.1875 I0.077 J-0.0003
N1260 G1 X1.3897 Y-0.1833
N1265 G3 X1.4601 Y-0.2445 I0.0754 J0.0157
N1270 G1 X1.6929 Y-0.2598
N1275 G3 X1.775 Y-0.1829 I0.005 J0.0769
N1280 G1 Y0.558
N1285 G3 X1.7375 Y0.557 I-0.0187 J0.
N1290 G1 X1.775 Y-0.184
N1295 G3 X1.8125 Y-0.1831 I0.0187 J0.0009
N1300 G1 Y0.375
N1305 Y0.558
N1310 G3 X1.812 Y0.5638 I-0.0375 J0.
N1315 G1 X1.7827 Y0.749
N1320 X1.782 Y0.7535 Z-0.4372
N1325 X1.7813 Y0.7579 Z-0.4364
N1330 X1.7806 Y0.7622 Z-0.4351
N1335 X1.78 Y0.7663 Z-0.4332
N1340 X1.7794 Y0.7701 Z-0.4309
N1345 X1.7788 Y0.7736 Z-0.4281
N1350 X1.7783 Y0.7768 Z-0.4249
N1355 X1.7779 Y0.7795 Z-0.4213
N1360 X1.7775 Y0.7818 Z-0.4174
N1365 X1.7772 Y0.7837 Z-0.4133
N1370 X1.777 Y0.785 Z-0.409
N1375 X1.7769 Y0.7858 Z-0.4045
N1380 X1.7768 Y0.7861 Z-0.4
N1385 G0 Z0.6

N1390 M5
N1395 M9
N1400 G53 G0 Z0.
N1410 X1.4375
N1415 G53 Y0.
N1420 M30

%
