%
O08001 (Air_Engine_Standard_1)
(Using high feed G1 F500. instead of G0.)
(T1 D=1. CR=0. - ZMIN=-0.26 - flat end mill)
(T2 D=0.375 CR=0. - ZMIN=-0.447 - flat end mill)
(T3 D=0.25 CR=0. TAPER=90deg - ZMIN=-0.497 - spot drill)
(T4 D=0.125 CR=0. TAPER=118deg - ZMIN=-1.0576 - drill)
(T5 D=0.25 CR=0. TAPER=118deg - ZMIN=-1.0951 - drill)
(T6 D=0.3125 CR=0. TAPER=118deg - ZMIN=-1.1139 - drill)
N10 G90 G94 G17
N15 G20
N20 G53 G0 Z0.

(Face1)
N30 T1 M6
N35 S4000 M4
N40 G54
N45 M8
N60 G0 X4.65 Y0.0125
N65 G43 Z0.6 H1
N70 T2
N75 G0 Z0.2
N80 G1 Z0.01 F96.
N85 G18 G3 X4.55 Z-0.09 I-0.1 K0.
N90 G1 X4.
N95 X0.
N100 G17 G2 Y0.5155 I0. J0.2515
N105 G1 X4.
N110 G18 G2 X4.1 Z0.01 I0. K0.1
N115 G0 Z0.2
N120 G1 X4.65 Y0.0125 F500.
N125 Z-0.12 F96.
N130 G3 X4.55 Z-0.22 I-0.1 K0.
N135 G1 X4.
N140 X0.
N145 G17 G2 Y0.5155 I0. J0.2515
N150 G1 X4.
N155 G18 G2 X4.1 Z-0.12 I0. K0.1
N160 G0 Z0.2
N165 G1 X4.65 Y0.0125 F500.
N170 Z-0.16 F96.
N175 G3 X4.55 Z-0.26 I-0.1 K0.
N180 G1 X4.
N185 X0.
N190 G17 G2 Y0.5155 I0. J0.2515
N195 G1 X4.
N200 G18 G2 X4.1 Z-0.16 I0. K0.1
N205 G0 Z0.6
N210 M5
N215 G53 G0 Z0.

(2D Adaptive4)
N225 M9
N230 M1
N235 T2 M6
N240 S4000 M3
N245 G54
N250 M8
N260 G17
N265 G0 X3.1288 Y-0.4265
N270 G43 Z0.6 H2
N275 T3
N280 G0 Z0.2
N285 Z-0.352
N290 G1 Z-0.3895 F32.
N295 X3.1289 Y-0.4262 Z-0.394
N300 X3.1291 Y-0.4254 Z-0.3985
N305 X3.1294 Y-0.4241 Z-0.4028
N310 X3.1299 Y-0.4223 Z-0.4069
N315 X3.1305 Y-0.4201 Z-0.4108
N320 X3.1312 Y-0.4174 Z-0.4144
N325 X3.132 Y-0.4143 Z-0.4176
N330 X3.1329 Y-0.4108 Z-0.4204
N335 X3.1338 Y-0.407 Z-0.4227
N340 X3.1348 Y-0.403 Z-0.4246
N345 X3.1359 Y-0.3989 Z-0.4259
N350 X3.137 Y-0.3945 Z-0.4267
N355 X3.1381 Y-0.3902 Z-0.427
N360 G3 X3.1675 Y-0.186 I-0.9274 J0.2376
N365 G1 Y-0.1693
N370 X3.1674 Y-0.1678
N375 X3.1622 Y-0.1609
N380 X3.1552 Y-0.1529
N385 X3.1459 Y-0.1439
N390 X3.1339 Y-0.1339
N395 X3.1183 Y-0.1231
N400 X3.0984 Y-0.1115
N405 X3.0727 Y-0.0991
N410 X3.039 Y-0.0861
N415 X2.9942 Y-0.0729
N420 X2.9485 Y-0.0632
N425 X2.9024 Y-0.0561
N430 X2.856 Y-0.0508
N435 X2.8095 Y-0.0469
N440 X2.7628 Y-0.044
N445 X2.7162 Y-0.0419
N450 X2.6695 Y-0.0403
N455 X2.6229 Y-0.0391
N460 X2.5762 Y-0.0382
N465 X2.5295 Y-0.0376
N470 X2.4828 Y-0.0371
N475 X2.4361 Y-0.0367
N480 X2.4095 Y-0.0365
N485 X2.3945 Y-0.0379
N490 X2.3801 Y-0.0422
N495 X2.3668 Y-0.0493
N500 X2.3551 Y-0.0588
N505 X2.3455 Y-0.0704
N510 X2.3384 Y-0.0837
N515 X2.334 Y-0.0981
N520 X2.3325 Y-0.1131
N525 G3 X2.3672 Y-0.1492 I0.0375 J0.0013
N530 G1 X3.1273 Y-0.2054
N535 G3 X3.1675 Y-0.1693 I0.0028 J0.0374
N540 G1 Y-0.1182
N545 X3.1672 Y-0.1122
N550 X3.1657 Y-0.1064
N555 X3.1639 Y-0.1007
N560 X3.1619 Y-0.095
N565 X3.1596 Y-0.0895
N570 X3.1571 Y-0.084
N575 X3.1544 Y-0.0786
N580 X3.1515 Y-0.0734
N585 X3.1484 Y-0.0683
N590 X3.1452 Y-0.0632
N595 X3.1418 Y-0.0583
N600 X3.1382 Y-0.0534
N605 X3.1345 Y-0.0487
N610 X3.1307 Y-0.0441
N615 X3.1268 Y-0.0396
N620 X3.1227 Y-0.0351
N625 X3.1185 Y-0.0308
N630 X3.1143 Y-0.0266
N635 X3.1099 Y-0.0225
N640 X3.1055 Y-0.0185
N645 X3.1009 Y-0.0145
N650 X3.0963 Y-0.0107
N655 X3.0916 Y-0.007
N660 X3.0868 Y-0.0033
N665 X3.082 Y0.0002
N670 X3.0771 Y0.0037
N675 X3.0721 Y0.0071
N680 X3.0671 Y0.0104
N685 X3.0621 Y0.0136
N690 X3.057 Y0.0167
N695 X3.0518 Y0.0198
N700 X3.0466 Y0.0227
N705 X3.0413 Y0.0256
N710 X3.036 Y0.0284
N715 X3.0307 Y0.0312
N720 X3.0253 Y0.0339
N725 X3.0199 Y0.0365
N730 X3.0145 Y0.039
N735 X3.009 Y0.0415
N740 X3.0035 Y0.0439
N745 X2.998 Y0.0462
N750 X2.9924 Y0.0485
N755 X2.9869 Y0.0507
N760 X2.9813 Y0.0529
N765 X2.9756 Y0.055
N770 X2.97 Y0.057
N775 X2.9643 Y0.059
N780 X2.9587 Y0.061
N785 X2.953 Y0.0628
N790 X2.9473 Y0.0647
N795 X2.9415 Y0.0665
N800 X2.9358 Y0.0682
N805 X2.93 Y0.0699
N810 X2.9243 Y0.0715
N815 X2.9185 Y0.0731
N820 X2.9126 Y0.0747
N825 X2.9065 Y0.0763
N830 X2.9002 Y0.0779
N835 X2.8939 Y0.0794
N840 X2.8875 Y0.0809
N845 X2.8808 Y0.0825
N850 X2.8738 Y0.084
N855 X2.8665 Y0.0856
N860 X2.8588 Y0.0872
N865 X2.8509 Y0.0887
N870 X2.8429 Y0.0903
N875 X2.8345 Y0.0918
N880 X2.8257 Y0.0934
N885 X2.8164 Y0.0949
N890 X2.8066 Y0.0965
N895 X2.7966 Y0.098
N900 X2.7861 Y0.0996
N905 X2.7749 Y0.1011
N910 X2.7629 Y0.1027
N915 X2.7506 Y0.1042
N920 X2.7374 Y0.1057
N925 X2.7231 Y0.1073
N930 X2.7079 Y0.1088
N935 X2.6916 Y0.1103
N940 X2.6738 Y0.1119
N945 X2.6545 Y0.1134
N950 X2.6332 Y0.1149
N955 X2.6095 Y0.1164
N960 X2.5867 Y0.1177
N965 X2.5754 Y0.1182
N970 X2.5655 Y0.1187
N975 X2.5559 Y0.119
N980 X2.5484 Y0.1192
N985 X2.5421 Y0.1193
N990 X2.5361 Y0.1194
N995 X2.5301
N1000 X2.5241
N1005 X2.5181 Y0.1193
N1010 X2.5121 Y0.1192
N1015 X2.5061 Y0.119
N1020 X2.5001 Y0.1187
N1025 X2.4941 Y0.1184
N1030 X2.4881 Y0.118
N1035 X2.4821 Y0.1176
N1040 X2.4761 Y0.117
N1045 X2.4702 Y0.1164
N1050 X2.4642 Y0.1157
N1055 X2.4583 Y0.1149
N1060 X2.4523 Y0.114
N1065 X2.4464 Y0.1131
N1070 X2.4405 Y0.112
N1075 X2.4346 Y0.1109
N1080 X2.4287 Y0.1096
N1085 X2.4229 Y0.1083
N1090 X2.4171 Y0.1068
N1095 X2.4113 Y0.1053
N1100 X2.4055 Y0.1036
N1105 X2.3998 Y0.1019
N1110 X2.3941 Y0.1
N1115 X2.3884 Y0.098
N1120 X2.375 Y0.0916
N1125 X2.3628 Y0.0829
N1130 X2.3524 Y0.0723
N1135 X2.3439 Y0.06
N1140 X2.3376 Y0.0465
N1145 X2.3338 Y0.0321
N1150 X2.3325 Y0.0172
N1155 Y0.0043
N1160 G3 X2.364 Y-0.0314 I0.0375 J0.0013
N1165 G1 X3.1241 Y-0.1539
N1170 G3 X3.1675 Y-0.1182 I0.006 J0.037
N1175 G1 Y-0.0345
N1180 X3.1673 Y-0.0307
N1185 X3.1663 Y-0.0208
N1190 X3.1644 Y-0.0099
N1195 X3.1612 Y0.002
N1200 X3.1567 Y0.015
N1205 X3.1505 Y0.0289
N1210 X3.1423 Y0.0438
N1215 X3.132 Y0.0596
N1220 X3.119 Y0.0763
N1225 X3.1031 Y0.0938
N1230 X3.0836 Y0.1119
N1235 X3.0598 Y0.1308
N1240 X3.0308 Y0.1501
N1245 X3.0104 Y0.1615
N1250 X2.9745 Y0.1914
N1255 X2.9494 Y0.2308
N1260 X2.9286 Y0.2726
N1265 X2.9082 Y0.3146
N1270 X2.8965 Y0.3348
N1275 X2.8832 Y0.3541
N1280 X2.8743 Y0.3651
N1285 X2.8625 Y0.3775
N1290 X2.8552 Y0.3841
N1295 X2.8457 Y0.3913
N1300 X2.8374 Y0.3965
N1305 X2.8303 Y0.4003
N1310 X2.8212 Y0.4042
N1315 X2.8155 Y0.4062
N1320 X2.8091 Y0.4078
N1325 X2.8016 Y0.409
N1330 X2.7956 Y0.4094
N1335 X2.7896 Y0.4092
N1340 X2.7837 Y0.4085
N1345 X2.7779 Y0.407
N1350 X2.7723 Y0.4048
N1355 X2.7672 Y0.4016
N1360 X2.7329 Y0.3699
N1365 X2.693 Y0.3456
N1370 X2.6502 Y0.327
N1375 X2.606 Y0.3122
N1380 X2.561 Y0.2995
N1385 X2.5158 Y0.2877
N1390 X2.4708 Y0.2755
N1395 X2.427 Y0.2616
N1400 X2.3953 Y0.2487
N1405 X2.3805 Y0.2412
N1410 X2.3669 Y0.2327
N1415 X2.3551 Y0.2218
N1420 X2.3455 Y0.2089
N1425 X2.3383 Y0.1946
N1430 X2.334 Y0.1791
N1435 X2.3325 Y0.1631
N1440 Y0.0172
N1445 G3 X2.3674 Y-0.0189 I0.0375 J0.0013
N1450 G1 X3.1275 Y-0.0706
N1455 G3 X3.1675 Y-0.0345 I0.0025 J0.0374
N1460 G1 Y0.0779
N1465 X3.167 Y0.0875
N1470 X3.1655 Y0.0993
N1475 X3.1628 Y0.1119
N1480 X3.1584 Y0.1265
N1485 X3.1415 Y0.17
N1490 X3.1219 Y0.2124
N1495 X3.102 Y0.2546
N1500 X3.0814 Y0.2965
N1505 X3.059 Y0.3375
N1510 X3.0359 Y0.3739
N1515 X3.0147 Y0.4021
N1520 X2.9942 Y0.4252
N1525 X2.9747 Y0.444
N1530 X2.9555 Y0.4596
N1535 X2.9369 Y0.4725
N1540 X2.919 Y0.4828
N1545 X2.9015 Y0.4912
N1550 X2.8847 Y0.4976
N1555 X2.8684 Y0.5023
N1560 X2.8529 Y0.5055
N1565 X2.838 Y0.5073
N1570 X2.8241 Y0.5079
N1575 X2.8091 Y0.5074
N1580 X2.7738 Y0.5032
N1585 X2.728 Y0.4939
N1590 X2.6826 Y0.4833
N1595 X2.6372 Y0.4722
N1600 X2.5919 Y0.4609
N1605 X2.5467 Y0.4492
N1610 X2.5017 Y0.4368
N1615 X2.4571 Y0.423
N1620 X2.4152 Y0.4074
N1625 X2.384 Y0.3929
N1630 X2.3769 Y0.3889
N1635 X2.3642 Y0.3802
N1640 X2.3533 Y0.3694
N1645 X2.3444 Y0.3568
N1650 X2.3379 Y0.3429
N1655 X2.3339 Y0.3281
N1660 X2.3325 Y0.3128
N1665 Y0.1631
N1670 G3 X2.3658 Y0.1271 I0.0375 J0.0013
N1675 G1 X3.1258 Y0.0419
N1680 G3 X3.1675 Y0.0779 I0.0042 J0.0373
N1685 G1 Y0.2801
N1690 X3.1661 Y0.308
N1695 X3.1658 Y0.314
N1700 X3.1653 Y0.32
N1705 X3.1647 Y0.3259
N1710 X3.1639 Y0.3319
N1715 X3.1631 Y0.3378
N1720 X3.1621 Y0.3437
N1725 X3.161 Y0.3496
N1730 X3.1597 Y0.3555
N1735 X3.1584 Y0.3614
N1740 X3.1569 Y0.3672
N1745 X3.1553 Y0.373
N1750 X3.1537 Y0.3787
N1755 X3.1519 Y0.3844
N1760 X3.15 Y0.3901
N1765 X3.148 Y0.3958
N1770 X3.1459 Y0.4014
N1775 X3.1437 Y0.407
N1780 X3.1414 Y0.4125
N1785 X3.139 Y0.418
N1790 X3.1365 Y0.4235
N1795 X3.1339 Y0.4289
N1800 X3.1312 Y0.4343
N1805 X3.1285 Y0.4396
N1810 X3.1256 Y0.4449
N1815 X3.1227 Y0.4501
N1820 X3.1196 Y0.4553
N1825 X3.1165 Y0.4604
N1830 X3.1133 Y0.4655
N1835 X3.11 Y0.4705
N1840 X3.1067 Y0.4755
N1845 X3.1032 Y0.4804
N1850 X3.0997 Y0.4853
N1855 X3.0961 Y0.49
N1860 X3.0924 Y0.4948
N1865 X3.0886 Y0.4995
N1870 X3.0848 Y0.5041
N1875 X3.0809 Y0.5086
N1880 X3.0769 Y0.5131
N1885 X3.0728 Y0.5175
N1890 X3.0687 Y0.5219
N1895 X3.0645 Y0.5261
N1900 X3.0602 Y0.5303
N1905 X3.0559 Y0.5345
N1910 X3.0515 Y0.5386
N1915 X3.047 Y0.5425
N1920 X3.0424 Y0.5465
N1925 X3.0378 Y0.5503
N1930 X3.0331 Y0.5541
N1935 X3.0284 Y0.5577
N1940 X3.0236 Y0.5613
N1945 X3.0187 Y0.5649
N1950 X3.0138 Y0.5683
N1955 X3.0088 Y0.5716
N1960 X3.0038 Y0.5749
N1965 X2.9987 Y0.5781
N1970 X2.9936 Y0.5812
N1975 X2.9884 Y0.5842
N1980 X2.9831 Y0.5871
N1985 X2.9778 Y0.5899
N1990 X2.9725 Y0.5926
N1995 X2.9671 Y0.5952
N2000 X2.9616 Y0.5977
N2005 X2.9561 Y0.6001
N2010 X2.9506 Y0.6025
N2015 X2.945 Y0.6047
N2020 X2.9394 Y0.6068
N2025 X2.9338 Y0.6088
N2030 X2.9281 Y0.6107
N2035 X2.9224 Y0.6125
N2040 X2.9166 Y0.6143
N2045 X2.9108 Y0.6159
N2050 X2.905 Y0.6175
N2055 X2.8992 Y0.6189
N2060 X2.8934 Y0.6203
N2065 X2.8875 Y0.6215
N2070 X2.8816 Y0.6227
N2075 X2.8757 Y0.6238
N2080 X2.8698 Y0.6248
N2085 X2.8639 Y0.6258
N2090 X2.8579 Y0.6266
N2095 X2.852 Y0.6274
N2100 X2.846 Y0.6281
N2105 X2.8401 Y0.6287
N2110 X2.8341 Y0.6293
N2115 X2.8281 Y0.6298
N2120 X2.8221 Y0.6302
N2125 X2.8161 Y0.6306
N2130 X2.8102 Y0.6309
N2135 X2.8042 Y0.6311
N2140 X2.7982 Y0.6313
N2145 X2.7922 Y0.6314
N2150 X2.7862 Y0.6315
N2155 X2.7802
N2160 X2.7742
N2165 X2.7682 Y0.6314
N2170 X2.7622 Y0.6313
N2175 X2.7561 Y0.6311
N2180 X2.7499 Y0.6309
N2185 X2.7434 Y0.6306
N2190 X2.7367 Y0.6303
N2195 X2.7298 Y0.6299
N2200 X2.7228 Y0.6294
N2205 X2.7156 Y0.6289
N2210 X2.708 Y0.6283
N2215 X2.7001 Y0.6276
N2220 X2.6918 Y0.6268
N2225 X2.6833 Y0.626
N2230 X2.6751 Y0.6251
N2235 X2.6665 Y0.6241
N2240 X2.6574 Y0.623
N2245 X2.6478 Y0.6217
N2250 X2.6378 Y0.6203
N2255 X2.629 Y0.619
N2260 X2.6202 Y0.6177
N2265 X2.6108 Y0.6162
N2270 X2.601 Y0.6145
N2275 X2.5906 Y0.6127
N2280 X2.581 Y0.6109
N2285 X2.5731 Y0.6094
N2290 X2.5648 Y0.6077
N2295 X2.5562 Y0.6059
N2300 X2.5471 Y0.604
N2305 X2.5375 Y0.6019
N2310 X2.5288 Y0.5999
N2315 X2.5219 Y0.5982
N2320 X2.5153 Y0.5966
N2325 X2.5085 Y0.5949
N2330 X2.5014 Y0.593
N2335 X2.494 Y0.591
N2340 X2.4865 Y0.589
N2345 X2.4802 Y0.5872
N2350 X2.4744 Y0.5855
N2355 X2.4687 Y0.5837
N2360 X2.4629 Y0.582
N2365 X2.4572 Y0.5802
N2370 X2.4515 Y0.5783
N2375 X2.4458 Y0.5764
N2380 X2.4402 Y0.5744
N2385 X2.4345 Y0.5724
N2390 X2.4289 Y0.5703
N2395 X2.4233 Y0.5681
N2400 X2.4177 Y0.5659
N2405 X2.4122 Y0.5636
N2410 X2.4067 Y0.5613
N2415 X2.4012 Y0.5589
N2420 X2.3957 Y0.5564
N2425 X2.3903 Y0.5538
N2430 X2.3849 Y0.5512
N2435 X2.3791 Y0.5482
N2440 X2.3659 Y0.5396
N2445 X2.3544 Y0.5287
N2450 X2.3451 Y0.516
N2455 X2.3382 Y0.5018
N2460 X2.3339 Y0.4866
N2465 X2.3325 Y0.4709
N2470 Y0.3128
N2475 G3 X2.3684 Y0.2766 I0.0375 J0.0013
N2480 G1 X3.1284 Y0.244
N2485 G3 X3.1675 Y0.2801 I0.0016 J0.0375
N2490 G1 Y0.4711
N2495 X3.1667 Y0.4881
N2500 X3.1663 Y0.4941
N2505 X3.1657 Y0.5001
N2510 X3.165 Y0.506
N2515 X3.164 Y0.5119
N2520 X3.1629 Y0.5178
N2525 X3.1616 Y0.5237
N2530 X3.1601 Y0.5295
N2535 X3.1584 Y0.5352
N2540 X3.1566 Y0.541
N2545 X3.1546 Y0.5466
N2550 X3.1524 Y0.5522
N2555 X3.1502 Y0.5578
N2560 X3.1455 Y0.5685
N2565 X3.1422 Y0.5797
N2570 X3.1405 Y0.5912
N2575 X3.1403 Y0.6029
N2580 X3.1417 Y0.6145
N2585 X3.1446 Y0.6258
N2590 X3.149 Y0.6366
N2595 X3.1537 Y0.6447
N2600 X3.1596 Y0.6556
N2605 X3.164 Y0.6673
N2610 X3.1666 Y0.6795
N2615 X3.1675 Y0.6919
N2620 G3 X3.0925 Y0.6906 I-0.0375 J-0.0013
N2625 G1 Y0.4724
N2630 G3 X3.1675 Y0.4711 I0.0375 J0.
N2635 G1 Y0.7357
N2640 G3 X3.1391 Y0.7708 I-0.0375 J-0.0013
N2645 G1 X2.3791 Y0.9611
N2650 G3 X2.3325 Y0.926 I-0.0091 J-0.0364
N2655 G1 Y0.4709
N2660 G3 X2.3359 Y0.4566 I0.0375 J0.0013
N2665 G1 X2.3377 Y0.4525 Z-0.4267
N2670 X2.3396 Y0.4484 Z-0.4259
N2675 X2.3414 Y0.4445 Z-0.4246
N2680 X2.3431 Y0.4408 Z-0.4227
N2685 X2.3447 Y0.4372 Z-0.4204
N2690 X2.3462 Y0.434 Z-0.4176
N2695 X2.3475 Y0.4311 Z-0.4144
N2700 X2.3487 Y0.4285 Z-0.4108
N2705 X2.3496 Y0.4264 Z-0.4069
N2710 X2.3504 Y0.4247 Z-0.4028
N2715 X2.351 Y0.4235 Z-0.3985
N2720 X2.3513 Y0.4227 Z-0.394
N2725 X2.3514 Y0.4225 Z-0.3895
N2730 G0 Z0.6

(2D Pocket2)
N2740 G1 X2.8417 Y-0.2248 F500.
N2745 G0 Z0.6
N2750 Z0.2
N2755 G1 Z-0.4095 F70.
N2760 G19 G3 Y-0.1873 Z-0.447 J0.0375 K0.
N2765 G1 Y-0.1833
N2770 Y0.9231
N2775 G17 G3 X2.6877 Y0.9232 I-0.077 J0.
N2780 G1 X2.6869 Y0.3806
N2785 G3 X2.6877 Y0.3699 I0.077 J-0.0001
N2790 G1 X2.7647 Y-0.1833
N2795 G3 X2.8374 Y-0.2496 I0.0763 J0.0106
N2800 G1 X3.0694 Y-0.2604
N2805 G3 X3.15 Y-0.1835 I0.0036 J0.0769
N2810 G1 Y0.74
N2815 Y0.923
N2820 G3 X3.1125 I-0.0187 J0.
N2825 G1 Y0.3697
N2830 X3.1313 Y-0.1835
N2835 G3 X3.1498 Y-0.2016 I0.0187 J0.0006
N2840 G1 X3.1685 Y-0.2018
N2845 G3 X3.1875 Y-0.1831 I0.0002 J0.0187
N2850 G1 Y0.74
N2855 Y0.923
N2860 G3 X3.187 Y0.9288 I-0.0375 J0.
N2865 G1 X3.1868 Y0.9303
N2870 X3.1861 Y0.9348 Z-0.4467
N2875 X3.1854 Y0.9392 Z-0.4459
N2880 X3.1847 Y0.9434 Z-0.4446
N2885 X3.1841 Y0.9475 Z-0.4427
N2890 X3.1835 Y0.9513 Z-0.4404
N2895 X3.1829 Y0.9549 Z-0.4376
N2900 X3.1824 Y0.958 Z-0.4344
N2905 X3.182 Y0.9608 Z-0.4308
N2910 X3.1816 Y0.9631 Z-0.4269
N2915 X3.1813 Y0.9649 Z-0.4228
N2920 X3.1811 Y0.9663 Z-0.4185
N2925 X3.181 Y0.9671 Z-0.414
N2930 X3.1809 Y0.9673 Z-0.4095
N2935 G0 Z0.2
N2940 G1 X2.6583 Y0.9648 F500.
N2945 Z-0.4095 F70.
N2950 G19 G2 Y0.9273 Z-0.447 J-0.0375 K0.
N2955 G1 Y0.9233
N2960 Y-0.1831
N2965 G17 G3 X2.8123 Y-0.1832 I0.077 J0.
N2970 G1 X2.8131 Y0.3594
N2975 G3 X2.8123 Y0.3701 I-0.077 J0.0001
N2980 G1 X2.7353 Y0.9233
N2985 G3 X2.6626 Y0.9896 I-0.0763 J-0.0106
N2990 G1 X2.4306 Y1.0004
N2995 G3 X2.35 Y0.9235 I-0.0036 J-0.0769
N3000 G1 Y0.
N3005 Y-0.183
N3010 G3 X2.3875 I0.0187 J0.
N3015 G1 Y0.3703
N3020 X2.3687 Y0.9235
N3025 G3 X2.3502 Y0.9416 I-0.0187 J-0.0006
N3030 G1 X2.3315 Y0.9418
N3035 G3 X2.3125 Y0.9231 I-0.0002 J-0.0187
N3040 G1 Y0.
N3045 Y-0.183
N3050 G3 X2.313 Y-0.1888 I0.0375 J0.
N3055 G1 X2.3132 Y-0.1903
N3060 X2.3139 Y-0.1948 Z-0.4467
N3065 X2.3146 Y-0.1992 Z-0.4459
N3070 X2.3153 Y-0.2034 Z-0.4446
N3075 X2.3159 Y-0.2075 Z-0.4427
N3080 X2.3165 Y-0.2113 Z-0.4404
N3085 X2.3171 Y-0.2149 Z-0.4376
N3090 X2.3176 Y-0.218 Z-0.4344
N3095 X2.318 Y-0.2208 Z-0.4308
N3100 X2.3184 Y-0.2231 Z-0.4269
N3105 X2.3187 Y-0.2249 Z-0.4228
N3110 X2.3189 Y-0.2263 Z-0.4185
N3115 X2.319 Y-0.2271 Z-0.414
N3120 X2.3191 Y-0.2273 Z-0.4095
N3125 G0 Z0.6
N3130 M5
N3135 G53 G0 Z0.

(Drill2)
N3145 M9
N3150 M1
N3155 T3 M6
N3160 S5000 M3
N3165 G54
N3170 M8
N3185 G0 X2.75 Y0.37
N3190 G43 Z0.6 H3
N3195 T4
N3205 G0 Z0.2
N3210 G98 G81 X2.75 Y0.37 Z-0.497 R-0.247 F10.
N3215 G80
N3225 G1 X1.125 Y0.5022 Z0.2 F500.
N3230 G98 G81 X1.125 Y0.5022 Z-0.31 R-0.06 F10.
N3235 Y0.2378
N3240 X0.375 Y0.37
N3245 G80
N3250 G0 Z0.6
N3255 M5
N3260 G53 G0 Z0.

(Drill6)
N3270 M9
N3275 M1
N3280 T4 M6
N3285 S1000 M3
N3290 G54
N3295 M8
N3310 G0 X1.125 Y0.5022
N3315 G43 Z0.6 H4
N3320 T5
N3330 G0 Z0.2
N3335 Z-0.06
N3340 Z-0.18
N3345 G1 Z-0.2913 F3.
N3350 G0 Z-0.2873
N3355 G1 Z-0.3225 F3.
N3360 G0 Z-0.3185
N3365 G1 Z-0.3538 F3.
N3370 G0 Z-0.3498
N3375 G1 Z-0.385 F3.
N3380 G0 Z-0.381
N3385 G1 Z-0.4163 F3.
N3390 G0 Z-0.4123
N3395 G1 Z-0.4475 F3.
N3400 G0 Z-0.4435
N3405 G1 Z-0.4788 F3.
N3410 G0 Z-0.4748
N3415 G1 Z-0.51 F3.
N3420 G0 Z-0.506
N3425 G1 Z-0.5412 F3.
N3430 G0 Z-0.5372
N3435 G1 Z-0.5725 F3.
N3440 G0 Z-0.5685
N3445 G1 Z-0.6037 F3.
N3450 G0 Z-0.5997
N3455 G1 Z-0.635 F3.
N3460 G0 Z0.2
N3465 Z-0.555
N3470 G1 Z-0.6662 F3.
N3475 G0 Z-0.6622
N3480 G1 Z-0.697 F3.
N3485 G4 P1000
N3490 G0 Z0.2
N3495 Z0.6

(Drill8)
N3505 G1 X0.375 Y0.37 F500.
N3510 G0 Z0.6
N3520 Z0.2
N3525 Z-0.06
N3530 Z-0.18
N3535 G1 Z-0.2913 F3.
N3540 G0 Z-0.2873
N3545 G1 Z-0.3225 F3.
N3550 G0 Z-0.3185
N3555 G1 Z-0.3538 F3.
N3560 G0 Z-0.3498
N3565 G1 Z-0.385 F3.
N3570 G0 Z-0.381
N3575 G1 Z-0.4163 F3.
N3580 G0 Z-0.4123
N3585 G1 Z-0.4475 F3.
N3590 G0 Z-0.4435
N3595 G1 Z-0.4788 F3.
N3600 G0 Z-0.4748
N3605 G1 Z-0.51 F3.
N3610 G0 Z-0.506
N3615 G1 Z-0.5412 F3.
N3620 G0 Z-0.5372
N3625 G1 Z-0.5725 F3.
N3630 G0 Z-0.5685
N3635 G1 Z-0.6037 F3.
N3640 G0 Z-0.5997
N3645 G1 Z-0.635 F3.
N3650 G0 Z0.2
N3655 Z-0.555
N3660 G1 Z-0.6662 F3.
N3665 G0 Z-0.6622
N3670 G1 Z-0.6975 F3.
N3675 G0 Z-0.6935
N3680 G1 Z-0.7287 F3.
N3685 G0 Z-0.7247
N3690 G1 Z-0.76 F3.
N3695 G0 Z-0.756
N3700 G1 Z-0.7912 F3.
N3705 G0 Z-0.7872
N3710 G1 Z-0.8225 F3.
N3715 G0 Z-0.8185
N3720 G1 Z-0.8537 F3.
N3725 G0 Z-0.8497
N3730 G1 Z-0.885 F3.
N3735 G0 Z-0.881
N3740 G1 Z-0.9162 F3.
N3745 G0 Z-0.9122
N3750 G1 Z-0.9475 F3.
N3755 G0 Z-0.9435
N3760 G1 Z-0.9787 F3.
N3765 G0 Z-0.9747
N3770 G1 Z-1.01 F3.
N3775 G0 Z0.2
N3780 Z-0.93
N3785 G1 Z-1.0412 F3.
N3790 G0 Z-1.0372
N3795 G1 Z-1.0576 F3.
N3800 G4 P1000
N3805 G0 Z0.2
N3810 G1 X1.125 Y0.2378 F500.
N3815 G0 Z-0.06
N3820 Z-0.18
N3825 G1 Z-0.2913 F3.
N3830 G0 Z-0.2873
N3835 G1 Z-0.3225 F3.
N3840 G0 Z-0.3185
N3845 G1 Z-0.3538 F3.
N3850 G0 Z-0.3498
N3855 G1 Z-0.385 F3.
N3860 G0 Z-0.381
N3865 G1 Z-0.4163 F3.
N3870 G0 Z-0.4123
N3875 G1 Z-0.4475 F3.
N3880 G0 Z-0.4435
N3885 G1 Z-0.4788 F3.
N3890 G0 Z-0.4748
N3895 G1 Z-0.51 F3.
N3900 G0 Z-0.506
N3905 G1 Z-0.5412 F3.
N3910 G0 Z-0.5372
N3915 G1 Z-0.5725 F3.
N3920 G0 Z-0.5685
N3925 G1 Z-0.6037 F3.
N3930 G0 Z-0.5997
N3935 G1 Z-0.635 F3.
N3940 G0 Z0.2
N3945 Z-0.555
N3950 G1 Z-0.6662 F3.
N3955 G0 Z-0.6622
N3960 G1 Z-0.6975 F3.
N3965 G0 Z-0.6935
N3970 G1 Z-0.7287 F3.
N3975 G0 Z-0.7247
N3980 G1 Z-0.76 F3.
N3985 G0 Z-0.756
N3990 G1 Z-0.7912 F3.
N3995 G0 Z-0.7872
N4000 G1 Z-0.8225 F3.
N4005 G0 Z-0.8185
N4010 G1 Z-0.8537 F3.
N4015 G0 Z-0.8497
N4020 G1 Z-0.885 F3.
N4025 G0 Z-0.881
N4030 G1 Z-0.9162 F3.
N4035 G0 Z-0.9122
N4040 G1 Z-0.9475 F3.
N4045 G0 Z-0.9435
N4050 G1 Z-0.9787 F3.
N4055 G0 Z-0.9747
N4060 G1 Z-1.01 F3.
N4065 G0 Z0.2
N4070 Z-0.93
N4075 G1 Z-1.0412 F3.
N4080 G0 Z-1.0372
N4085 G1 Z-1.0576 F3.
N4090 G4 P1000
N4095 G0 Z0.2
N4105 G1 X2.75 Y0.37 F500.
N4110 G0 Z-0.247
N4115 Z-0.367
N4120 G1 Z-0.4782 F3.
N4125 G0 Z-0.4742
N4130 G1 Z-0.5095 F3.
N4135 G0 Z-0.5055
N4140 G1 Z-0.5407 F3.
N4145 G0 Z-0.5367
N4150 G1 Z-0.572 F3.
N4155 G0 Z-0.568
N4160 G1 Z-0.6032 F3.
N4165 G0 Z-0.5992
N4170 G1 Z-0.6345 F3.
N4175 G0 Z-0.6305
N4180 G1 Z-0.6657 F3.
N4185 G0 Z-0.6617
N4190 G1 Z-0.697 F3.
N4195 G0 Z-0.693
N4200 G1 Z-0.7282 F3.
N4205 G0 Z-0.7242
N4210 G1 Z-0.7595 F3.
N4215 G0 Z-0.7555
N4220 G1 Z-0.7907 F3.
N4225 G0 Z-0.7867
N4230 G1 Z-0.822 F3.
N4235 G0 Z0.2
N4240 Z-0.742
N4245 G1 Z-0.8532 F3.
N4250 G0 Z-0.8492
N4255 G1 Z-0.8845 F3.
N4260 G0 Z-0.8805
N4265 G1 Z-0.9157 F3.
N4270 G0 Z-0.9117
N4275 G1 Z-0.947 F3.
N4280 G0 Z-0.943
N4285 G1 Z-0.9782 F3.
N4290 G0 Z-0.9742
N4295 G1 Z-1.0095 F3.
N4300 G0 Z-1.0055
N4305 G1 Z-1.0407 F3.
N4310 G0 Z-1.0367
N4315 G1 Z-1.0576 F3.
N4320 G4 P1000
N4325 G0 Z0.2
N4330 Z0.6
N4335 M5
N4340 G53 G0 Z0.

(Drill4)
N4350 M9
N4355 M1
N4360 T5 M6
N4365 S5000 M3
N4370 G54
N4375 M8
N4390 G0 X0.375 Y0.37
N4395 G43 Z0.6 H5
N4400 T6
N4410 G0 Z0.2
N4415 Z-0.06
N4420 Z-0.18
N4425 G1 Z-0.3225 F10.
N4430 G0 Z-0.3175
N4435 G1 Z-0.385 F10.
N4440 G0 Z-0.38
N4445 G1 Z-0.4475 F10.
N4450 G0 Z-0.4425
N4455 G1 Z-0.51 F10.
N4460 G0 Z-0.505
N4465 G1 Z-0.5725 F10.
N4470 G0 Z-0.5675
N4475 G1 Z-0.635 F10.
N4480 G0 Z-0.63
N4485 G1 Z-0.6975 F10.
N4490 G0 Z-0.6925
N4495 G1 Z-0.76 F10.
N4500 G0 Z-0.755
N4505 G1 Z-0.8225 F10.
N4510 G0 Z-0.8175
N4515 G1 Z-0.885 F10.
N4520 G0 Z-0.88
N4525 G1 Z-0.9475 F10.
N4530 G0 Z-0.9425
N4535 G1 Z-1.01 F10.
N4540 G0 Z0.2
N4545 Z-0.93
N4550 G1 Z-1.0725 F10.
N4555 G0 Z-1.0675
N4560 G1 Z-1.0951 F10.
N4565 G4 P1000
N4570 G0 Z0.2
N4580 X2.75
N4585 Z-0.247
N4590 Z-0.367
N4595 G1 Z-0.5095 F10.
N4600 G0 Z-0.5045
N4605 G1 Z-0.572 F10.
N4610 G0 Z-0.567
N4615 G1 Z-0.6345 F10.
N4620 G0 Z-0.6295
N4625 G1 Z-0.697 F10.
N4630 G0 Z-0.692
N4635 G1 Z-0.7595 F10.
N4640 G0 Z-0.7545
N4645 G1 Z-0.822 F10.
N4650 G0 Z-0.817
N4655 G1 Z-0.8845 F10.
N4660 G0 Z-0.8795
N4665 G1 Z-0.947 F10.
N4670 G0 Z-0.942
N4675 G1 Z-1.0095 F10.
N4680 G0 Z-1.0045
N4685 G1 Z-1.072 F10.
N4690 G0 Z-1.067
N4695 G1 Z-1.0951 F10.
N4700 G4 P1000
N4705 G0 Z0.2
N4710 Z0.6
N4715 M5
N4720 G53 G0 Z0.

(Drill9)
N4730 M9
N4735 M1
N4740 T6 M6
N4745 S5000 M3
N4750 G54
N4755 M8
N4770 G0 X2.75 Y0.37
N4775 G43 Z0.6 H6
N4780 T1
N4790 G0 Z0.2
N4795 G98 G73 X2.75 Y0.37 Z-1.1139 R-0.247 Q0.0781 P1000 F10.
N4800 G80
N4805 G0 Z0.6

N4810 M5
N4815 M9
N4820 G53 G0 Z0.
N4830 X2.
N4835 G53 Y0.
N4840 M30

%
