%
O08003 (Air_Engine_Standard_3)
(Using high feed G1 F500. instead of G0.)
(T3 D=0.25 CR=0. TAPER=90deg - ZMIN=-0.08 - spot drill)
(T4 D=0.125 CR=0. TAPER=118deg - ZMIN=-0.75 - drill)
(T5 D=0.25 CR=0. TAPER=118deg - ZMIN=-0.75 - drill)
N10 G90 G94 G17
N15 G20
N20 G53 G0 Z0.

(Drill15)
N30 T3 M6
N35 S5000 M3
N40 G54
N45 M8
N60 G0 X0.37 Y0.37
N65 G43 Z0.6 H3
N70 T4
N80 G0 Z0.2
N85 G98 G81 X0.37 Y0.37 Z-0.08 R0.2 F10.
N90 G80
N95 G0 Z0.6
N100 M5
N105 G53 G0 Z0.

(Drill16)
N115 M9
N120 M1
N125 T4 M6
N130 S1000 M3
N135 G54
N140 M8
N155 G0 X0.37 Y0.37
N160 G43 Z0.6 H4
N165 T5
N175 G0 Z0.2
N180 Z0.08
N185 G1 Z-0.0312 F3.
N190 G0 Z-0.0272
N195 G1 Z-0.0625 F3.
N200 G0 Z-0.0585
N205 G1 Z-0.0937 F3.
N210 G0 Z-0.0897
N215 G1 Z-0.125 F3.
N220 G0 Z-0.121
N225 G1 Z-0.1562 F3.
N230 G0 Z-0.1522
N235 G1 Z-0.1875 F3.
N240 G0 Z-0.1835
N245 G1 Z-0.2187 F3.
N250 G0 Z-0.2147
N255 G1 Z-0.25 F3.
N260 G0 Z-0.246
N265 G1 Z-0.2812 F3.
N270 G0 Z-0.2772
N275 G1 Z-0.3125 F3.
N280 G0 Z-0.3085
N285 G1 Z-0.3437 F3.
N290 G0 Z-0.3397
N295 G1 Z-0.375 F3.
N300 G0 Z0.2
N305 Z-0.295
N310 G1 Z-0.4062 F3.
N315 G0 Z-0.4022
N320 G1 Z-0.4375 F3.
N325 G0 Z-0.4335
N330 G1 Z-0.4687 F3.
N335 G0 Z-0.4647
N340 G1 Z-0.5 F3.
N345 G0 Z-0.496
N350 G1 Z-0.5312 F3.
N355 G0 Z-0.5272
N360 G1 Z-0.5625 F3.
N365 G0 Z-0.5585
N370 G1 Z-0.5937 F3.
N375 G0 Z-0.5897
N380 G1 Z-0.625 F3.
N385 G0 Z-0.621
N390 G1 Z-0.6562 F3.
N395 G0 Z-0.6522
N400 G1 Z-0.6875 F3.
N405 G0 Z-0.6835
N410 G1 Z-0.7187 F3.
N415 G0 Z-0.7147
N420 G1 Z-0.75 F3.
N425 G4 P1000
N430 G0 Z0.2
N435 Z0.6
N440 M5
N445 G53 G0 Z0.

(Drill17)
N455 M9
N460 M1
N465 T5 M6
N470 S5000 M3
N475 G54
N480 M8
N495 G0 X0.37 Y0.37
N500 G43 Z0.6 H5
N505 T3
N515 G0 Z0.2
N520 Z0.08
N525 G1 Z-0.0625 F10.
N530 G0 Z-0.0575
N535 G1 Z-0.125 F10.
N540 G0 Z-0.12
N545 G1 Z-0.1875 F10.
N550 G0 Z-0.1825
N555 G1 Z-0.25 F10.
N560 G0 Z-0.245
N565 G1 Z-0.3125 F10.
N570 G0 Z-0.3075
N575 G1 Z-0.375 F10.
N580 G0 Z-0.37
N585 G1 Z-0.4375 F10.
N590 G0 Z-0.4325
N595 G1 Z-0.5 F10.
N600 G0 Z-0.495
N605 G1 Z-0.5625 F10.
N610 G0 Z-0.5575
N615 G1 Z-0.625 F10.
N620 G0 Z-0.62
N625 G1 Z-0.6875 F10.
N630 G0 Z-0.6825
N635 G1 Z-0.75 F10.
N640 G4 P1000
N645 G0 Z0.2
N650 Z0.6

N655 M5
N660 M9
N665 G53 G0 Z0.
N675 X0.37
N680 G53 Y0.
N685 M30

%
