%
O07004 (Piston_Block_4)
(Using high feed G1 F500. instead of G0.)
(T2 D=0.375 CR=0. - ZMIN=-0.187 - flat end mill)
N10 G90 G94 G17
N15 G20
N20 G53 G0 Z0.

(2D Pocket7 2)
N30 T2 M6
N35 S1000 M3
N40 G54
N45 M8
N60 G0 X3.2744 Y0.9042
N65 G43 Z0.6 H2
N70 G0 Z0.2
N75 G1 Z-0.1495 F5.
N80 G19 G2 Y0.8667 Z-0.187 J-0.0375 K0.
N85 G1 Y0.8411
N90 Y-0.1003
N95 G17 G3 X3.4285 Y-0.1005 I0.077 J0.
N100 G1 X3.4295 Y0.3578
N105 G3 X3.4285 Y0.3704 I-0.077 J0.0002
N110 G1 X3.3515 Y0.8411
N115 G3 X3.3046 Y0.9 I-0.076 J-0.0124
N120 G1 X3.0725 Y0.9948
N125 G3 X2.9664 Y0.9235 I-0.0291 J-0.0713
N130 G1 Y-0.1835
N135 G3 X3.1204 Y-0.1836 I0.077 J0.
N140 G1 X3.1211 Y0.3593
N145 G3 X3.1204 Y0.37 I-0.077 J0.0001
N150 G1 X3.0434 Y0.9235
N155 G3 X2.9706 Y0.9898 I-0.0763 J-0.0106
N160 G1 X2.7388 Y1.0003
N165 G3 X2.6583 Y0.9234 I-0.0035 J-0.0769
N170 G1 Y-0.183
N175 G3 X2.8123 Y-0.1831 I0.077 J0.
N180 G1 X2.8131 Y0.3595
N185 G3 X2.8123 Y0.3702 I-0.077 J0.0001
N190 G1 X2.7353 Y0.9234
N195 G3 X2.6626 Y0.9897 I-0.0763 J-0.0106
N200 G1 X2.4306 Y1.0004
N205 G3 X2.35 Y0.9234 I-0.0035 J-0.0769
N210 G1 Y-0.1832
N215 G3 X2.3875 I0.0187 J0.
N220 G1 Y0.3701
N225 X2.3687 Y0.9234
N230 G3 X2.3502 Y0.9416 I-0.0187 J-0.0006
N235 G1 X2.3315 Y0.9418
N240 G3 X2.3125 Y0.923 I-0.0002 J-0.0187
N245 G1 Y-0.1832
N250 G3 X2.313 Y-0.189 I0.0375 J0.
N255 G1 X2.3132 Y-0.1905
N260 X2.3139 Y-0.195 Z-0.1867
N265 X2.3146 Y-0.1994 Z-0.1859
N270 X2.3153 Y-0.2036 Z-0.1846
N275 X2.3159 Y-0.2077 Z-0.1827
N280 X2.3165 Y-0.2115 Z-0.1804
N285 X2.3171 Y-0.2151 Z-0.1776
N290 X2.3176 Y-0.2182 Z-0.1744
N295 X2.318 Y-0.221 Z-0.1708
N300 X2.3184 Y-0.2233 Z-0.1669
N305 X2.3187 Y-0.2251 Z-0.1628
N310 X2.3189 Y-0.2265 Z-0.1585
N315 X2.319 Y-0.2273 Z-0.154
N320 X2.3191 Y-0.2275 Z-0.1495
N325 G0 Z0.6

N330 M5
N335 M9
N340 G53 G0 Z0.
N350 X1.5625
N355 G53 Y0.
N360 M30

%
