%
O07003 (Piston_Block_3)
(Using high feed G1 F500. instead of G0.)
(T3 D=0.25 CR=0. TAPER=90deg - ZMIN=-0.06 - spot drill)
(T4 D=0.125 CR=0. TAPER=118deg - ZMIN=-0.825 - drill)
(T5 D=0.25 CR=0. TAPER=118deg - ZMIN=-2.125 - drill)
(T9 D=0.3281 CR=0. TAPER=118deg - ZMIN=-2.125 - drill)
(T10 D=0.5 CR=0. TAPER=118deg - ZMIN=-2.125 - drill)
N10 G90 G94 G17
N15 G20
N20 G53 G0 Z0.

(Drill6)
N30 T3 M6
N35 S1000 M3
N40 G54
N45 M8
N60 G0 X0.37 Y0.37
N65 G43 Z0.6 H3
N70 T4
N80 G0 Z0.2
N85 G98 G81 X0.37 Y0.37 Z-0.06 R0.2 F5.
N90 G80
N95 G0 Z0.6
N100 M5
N105 G53 G0 Z0.

(Drill11)
N115 M9
N120 M1
N125 T4 M6
N130 S1000 M3
N135 G54
N140 M8
N155 G0 X0.37 Y0.37
N160 G43 Z0.6 H4
N165 T5
N175 G0 Z0.2
N180 Z0.08
N185 G1 Z-0.0312 F3.
N190 G0 Z-0.0272
N195 G1 Z-0.0625 F3.
N200 G0 Z-0.0585
N205 G1 Z-0.0937 F3.
N210 G0 Z-0.0897
N215 G1 Z-0.125 F3.
N220 G0 Z-0.121
N225 G1 Z-0.1562 F3.
N230 G0 Z-0.1522
N235 G1 Z-0.1875 F3.
N240 G0 Z-0.1835
N245 G1 Z-0.2187 F3.
N250 G0 Z-0.2147
N255 G1 Z-0.25 F3.
N260 G0 Z-0.246
N265 G1 Z-0.2812 F3.
N270 G0 Z-0.2772
N275 G1 Z-0.3125 F3.
N280 G0 Z-0.3085
N285 G1 Z-0.3437 F3.
N290 G0 Z-0.3397
N295 G1 Z-0.375 F3.
N300 G0 Z0.2
N305 Z-0.295
N310 G1 Z-0.4062 F3.
N315 G0 Z-0.4022
N320 G1 Z-0.4375 F3.
N325 G0 Z-0.4335
N330 G1 Z-0.4687 F3.
N335 G0 Z-0.4647
N340 G1 Z-0.5 F3.
N345 G0 Z-0.496
N350 G1 Z-0.5312 F3.
N355 G0 Z-0.5272
N360 G1 Z-0.5625 F3.
N365 G0 Z-0.5585
N370 G1 Z-0.5937 F3.
N375 G0 Z-0.5897
N380 G1 Z-0.625 F3.
N385 G0 Z-0.621
N390 G1 Z-0.6562 F3.
N395 G0 Z-0.6522
N400 G1 Z-0.6875 F3.
N405 G0 Z-0.6835
N410 G1 Z-0.7187 F3.
N415 G0 Z-0.7147
N420 G1 Z-0.75 F3.
N425 G0 Z0.2
N430 Z-0.67
N435 G1 Z-0.7812 F3.
N440 G0 Z-0.7772
N445 G1 Z-0.8125 F3.
N450 G0 Z-0.8085
N455 G1 Z-0.825 F3.
N460 G4 P1000
N465 G0 Z0.2
N470 Z0.6
N475 M5
N480 G53 G0 Z0.

(Drill7)
N490 M9
N495 M1
N500 T5 M6
N505 S1000 M3
N510 G54
N515 M8
N530 G0 X0.37 Y0.37
N535 G43 Z0.6 H5
N540 T9
N550 G0 Z0.2
N555 G98 G83 X0.37 Y0.37 Z-2.125 R0.2 Q0.0625 P1000 F5.
N560 G80
N565 G0 Z0.6
N570 M5
N575 G53 G0 Z0.

(Drill9)
N585 M9
N590 M1
N595 T9 M6
N600 S1000 M3
N605 G54
N610 M8
N625 G0 X0.37 Y0.37
N630 G43 Z0.6 H9
N635 T10
N645 G0 Z0.2
N650 G98 G83 X0.37 Y0.37 Z-2.125 R0.2 Q0.082 P1000 F5.
N655 G80
N660 G0 Z0.6
N665 M5
N670 G53 G0 Z0.

(Drill10)
N680 M9
N685 M1
N690 T10 M6
N695 S500 M3
N700 G54
N705 M8
N720 G0 X0.37 Y0.37
N725 G43 Z0.6 H10
N730 T3
N740 G0 Z0.2
N745 G98 G83 X0.37 Y0.37 Z-2.125 R0.2 Q0.125 P1000 F4.5
N750 G80
N755 G0 Z0.6

N760 M5
N765 M9
N770 G53 G0 Z0.
N780 X0.37
N785 G53 Y0.
N790 M30

%
